svg/check-docker.svg

<?xml version="1.0" encoding="UTF-8"?>
<svg xmlns="http://www.w3.org/2000/svg" xmlns:xlink="http://www.w3.org/1999/xlink" width="32" height="32" viewBox="0 0 32 32">
<path fill-rule="nonzero" fill="rgb(0%, 0%, 0%)" fill-opacity="1" d="M 14.191406 2.667969 L 14.191406 5.738281 L 17.492188 5.738281 L 17.492188 2.667969 Z M 6.382812 6.34375 L 6.382812 9.382812 L 9.683594 9.382812 L 9.683594 6.34375 Z M 10.285156 6.34375 L 10.285156 9.382812 L 13.589844 9.382812 L 13.589844 6.34375 Z M 14.191406 6.34375 L 14.191406 9.382812 L 17.492188 9.382812 L 17.492188 6.34375 Z M 24.925781 7.285156 L 24.460938 7.992188 C 23.539062 9.398438 23.289062 11.714844 24.277344 13.242188 C 23.839844 13.480469 22.988281 13.804688 21.855469 13.785156 L 0.121094 13.785156 C -0.3125 16.355469 0.410156 19.691406 2.320312 21.988281 C 4.175781 24.207031 6.957031 25.335938 10.589844 25.335938 C 18.460938 25.335938 24.285156 21.667969 27.007812 15.003906 C 28.078125 15.027344 30.390625 15.007812 31.574219 12.714844 C 31.648438 12.589844 31.90625 12.050781 32 11.851562 L 31.335938 11.402344 L 31.335938 11.40625 C 30.617188 10.914062 28.957031 10.734375 27.679688 10.976562 C 27.515625 9.761719 26.847656 8.703125 25.628906 7.753906 Z M 2.480469 9.992188 L 2.480469 12.996094 L 5.785156 12.996094 L 5.785156 9.992188 Z M 6.382812 9.992188 L 6.382812 12.996094 L 9.683594 12.996094 L 9.683594 9.992188 Z M 10.289062 9.992188 L 10.289062 12.996094 L 13.589844 12.996094 L 13.589844 9.992188 Z M 18.101562 9.992188 L 18.101562 12.996094 L 21.40625 12.996094 L 21.40625 9.992188 Z M 14.191406 9.996094 L 14.191406 13.003906 L 17.492188 13.003906 L 17.492188 9.996094 Z M 14.191406 9.996094 "/>
<path fill-rule="nonzero" fill="rgb(100%, 100%, 100%)" fill-opacity="1" d="M 21.847656 18.167969 C 18.164062 18.167969 15.179688 21.152344 15.179688 24.835938 C 15.179688 28.519531 18.164062 31.503906 21.847656 31.503906 C 25.53125 31.503906 28.515625 28.519531 28.515625 24.835938 C 28.515625 21.152344 25.53125 18.167969 21.847656 18.167969 "/>
<path fill-rule="nonzero" fill="rgb(0%, 0%, 0%)" fill-opacity="1" d="M 21.894531 18.964844 C 18.585938 18.964844 15.894531 21.65625 15.894531 24.964844 C 15.894531 28.273438 18.585938 30.964844 21.894531 30.964844 C 25.203125 30.964844 27.894531 28.273438 27.894531 24.964844 C 27.894531 21.65625 25.203125 18.964844 21.894531 18.964844 M 24.71875 22.765625 L 21.714844 27.191406 L 19.367188 25.011719 C 19.296875 24.949219 19.261719 24.851562 19.28125 24.757812 C 19.300781 24.664062 19.371094 24.589844 19.464844 24.566406 C 19.554688 24.539062 19.65625 24.5625 19.722656 24.628906 L 21.625 26.394531 L 24.285156 22.472656 C 24.367188 22.359375 24.527344 22.332031 24.644531 22.410156 C 24.761719 22.488281 24.796875 22.648438 24.71875 22.765625 "/>
</svg>

<svg role="img" viewBox="0 0 32 32" xmlns="http://www.w3.org/2000/svg"><path d="M14.191 2.668v3.07h3.301v-3.07ZM6.383 6.344v3.039h3.3v-3.04Zm3.902 0v3.039h3.305v-3.04Zm3.906 0v3.039h3.301v-3.04Zm10.735.941-.465.707c-.922 1.406-1.172 3.723-.184 5.25-.437.238-1.289.563-2.422.543H.121c-.433 2.57.29 5.906 2.2 8.203 1.855 2.219 4.636 3.348 8.269 3.348 7.87 0 13.695-3.668 16.418-10.332 1.07.023 3.383.004 4.566-2.29.074-.124.332-.663.426-.862l-.664-.45v.004c-.719-.492-2.379-.672-3.656-.43-.164-1.214-.832-2.273-2.051-3.222ZM2.48 9.992v3.004h3.305V9.992Zm3.903 0v3.004h3.3V9.992Zm3.906 0v3.004h3.3V9.992Zm7.813 0v3.004h3.304V9.992Zm-3.91.004v3.008h3.3V9.996Zm0 0"/><path d="M21.848 18.168a6.667 6.667 0 0 0-6.668 6.668 6.667 6.667 0 0 0 6.668 6.668 6.667 6.667 0 0 0 6.668-6.668 6.667 6.667 0 0 0-6.668-6.668" fill="rgb(100%, 100%, 100%)"/><path d="M21.895 18.965c-3.31 0-6 2.691-6 6 0 3.308 2.69 6 6 6 3.308 0 6-2.692 6-6 0-3.309-2.692-6-6-6m2.824 3.8-3.004 4.426-2.348-2.18a.27.27 0 0 1-.086-.253.25.25 0 0 1 .184-.192.26.26 0 0 1 .258.063l1.902 1.766 2.66-3.922a.264.264 0 0 1 .36-.063.26.26 0 0 1 .074.356"/></svg>
